public/socials/white_instagram.svg

<svg width="42" height="42" viewBox="0 0 42 42" fill="none" xmlns="http://www.w3.org/2000/svg">
<g clip-path="url(#clip0_629_226)">
<path d="M21 0C15.3011 0 14.5845 0.02625 12.3454 0.126C10.1062 0.231 8.58113 0.58275 7.245 1.1025C5.8435 1.62965 4.57404 2.45654 3.52538 3.52538C2.4572 4.57458 1.63041 5.84388 1.1025 7.245C0.58275 8.5785 0.228375 10.1062 0.126 12.3375C0.02625 14.5819 0 15.2959 0 21.0026C0 26.7041 0.02625 27.4181 0.126 29.6573C0.231 31.8938 0.58275 33.4189 1.1025 34.755C1.64062 36.1357 2.35725 37.3065 3.52538 38.4746C4.69088 39.6427 5.86163 40.362 7.24238 40.8975C8.58113 41.4173 10.1036 41.7716 12.3401 41.874C14.5819 41.9737 15.2959 42 21 42C26.7041 42 27.4155 41.9737 29.6573 41.874C31.8911 41.769 33.4215 41.4173 34.7576 40.8975C36.1582 40.3701 37.4268 39.5432 38.4746 38.4746C39.6427 37.3065 40.3594 36.1357 40.8975 34.755C41.4146 33.4189 41.769 31.8938 41.874 29.6573C41.9737 27.4181 42 26.7041 42 21C42 15.2959 41.9737 14.5819 41.874 12.3401C41.769 10.1063 41.4146 8.5785 40.8975 7.245C40.3697 5.84384 39.5429 4.57452 38.4746 3.52538C37.4263 2.45615 36.1567 1.62919 34.755 1.1025C33.4162 0.58275 31.8885 0.228375 29.6546 0.126C27.4129 0.02625 26.7015 0 20.9948 0H21.0026H21ZM19.1179 3.78525H21.0026C26.6096 3.78525 27.2738 3.80363 29.4866 3.906C31.5341 3.99787 32.6471 4.34175 33.3874 4.62787C34.3665 5.0085 35.0674 5.46525 35.8024 6.20025C36.5374 6.93525 36.9915 7.6335 37.3721 8.61525C37.6609 9.35287 38.0021 10.4659 38.094 12.5134C38.1964 14.7263 38.2174 15.3904 38.2174 20.9948C38.2174 26.5991 38.1964 27.2659 38.094 29.4787C38.0021 31.5262 37.6583 32.6366 37.3721 33.3769C37.0354 34.2887 36.4981 35.1131 35.7997 35.7892C35.0648 36.5243 34.3665 36.9784 33.3848 37.359C32.6497 37.6478 31.5367 37.989 29.4866 38.0835C27.2738 38.1833 26.6096 38.2069 21.0026 38.2069C15.3956 38.2069 14.7289 38.1833 12.516 38.0835C10.4685 37.989 9.35812 37.6478 8.61788 37.359C7.70569 37.0228 6.88046 36.4864 6.20287 35.7892C5.50397 35.1121 4.96577 34.2868 4.62787 33.3742C4.34175 32.6366 3.99787 31.5236 3.906 29.4761C3.80625 27.2633 3.78525 26.5991 3.78525 20.9895C3.78525 15.3825 3.80625 14.721 3.906 12.5081C4.0005 10.4606 4.34175 9.34762 4.6305 8.60738C5.01113 7.62825 5.46788 6.92737 6.20287 6.19237C6.93787 5.45738 7.63613 5.00325 8.61788 4.62262C9.35812 4.33388 10.4685 3.99262 12.516 3.89812C14.4532 3.80888 15.204 3.78263 19.1179 3.78V3.78525ZM32.2114 7.27125C31.8804 7.27125 31.5528 7.33643 31.247 7.46307C30.9413 7.58972 30.6635 7.77534 30.4295 8.00934C30.1955 8.24334 30.0098 8.52115 29.8832 8.82689C29.7566 9.13263 29.6914 9.46032 29.6914 9.79125C29.6914 10.1222 29.7566 10.4499 29.8832 10.7556C30.0098 11.0614 30.1955 11.3392 30.4295 11.5732C30.6635 11.8072 30.9413 11.9928 31.247 12.1194C31.5528 12.2461 31.8804 12.3112 32.2114 12.3112C32.8797 12.3112 33.5207 12.0458 33.9933 11.5732C34.4659 11.1006 34.7314 10.4596 34.7314 9.79125C34.7314 9.1229 34.4659 8.48193 33.9933 8.00934C33.5207 7.53675 32.8797 7.27125 32.2114 7.27125ZM21.0026 10.2165C19.5722 10.1942 18.1516 10.4566 16.8236 10.9886C15.4955 11.5206 14.2866 12.3114 13.2671 13.3151C12.2477 14.3188 11.4381 15.5152 10.8855 16.8348C10.3328 18.1544 10.0482 19.5707 10.0482 21.0013C10.0482 22.4319 10.3328 23.8482 10.8855 25.1678C11.4381 26.4874 12.2477 27.6838 13.2671 28.6875C14.2866 29.6912 15.4955 30.482 16.8236 31.014C18.1516 31.546 19.5722 31.8084 21.0026 31.7861C23.8338 31.742 26.5341 30.5863 28.5206 28.5685C30.5071 26.5508 31.6205 23.8328 31.6205 21.0013C31.6205 18.1698 30.5071 15.4518 28.5206 13.4341C26.5341 11.4164 23.8338 10.2607 21.0026 10.2165ZM21.0026 13.9991C22.8594 13.9991 24.6401 14.7367 25.953 16.0496C27.2659 17.3626 28.0035 19.1433 28.0035 21C28.0035 22.8567 27.2659 24.6374 25.953 25.9504C24.6401 27.2633 22.8594 28.0009 21.0026 28.0009C19.1459 28.0009 17.3652 27.2633 16.0523 25.9504C14.7393 24.6374 14.0017 22.8567 14.0017 21C14.0017 19.1433 14.7393 17.3626 16.0523 16.0496C17.3652 14.7367 19.1459 13.9991 21.0026 13.9991Z" fill="white"/>
</g>
<defs>
<clipPath id="clip0_629_226">
<rect width="42" height="42" fill="white"/>
</clipPath>
</defs>
</svg>

<svg width="42" height="42" fill="none" xmlns="http://www.w3.org/2000/svg"><g clip-path="url(#a)"><path d="M21 0c-5.699 0-6.415.026-8.655.126-2.239.105-3.764.457-5.1.977a10.282 10.282 0 0 0-3.72 2.422 10.308 10.308 0 0 0-2.422 3.72c-.52 1.333-.875 2.861-.977 5.093C.026 14.582 0 15.296 0 21.002c0 5.701.026 6.415.126 8.654.105 2.237.457 3.762.977 5.098.538 1.38 1.254 2.551 2.422 3.72a10.248 10.248 0 0 0 3.717 2.422c1.34.52 2.862.875 5.098.977 2.242.1 2.956.126 8.66.126 5.704 0 6.416-.026 8.657-.126 2.234-.105 3.765-.457 5.1-.977 1.401-.527 2.67-1.354 3.718-2.422 1.168-1.169 1.884-2.34 2.422-3.72.518-1.336.872-2.861.977-5.098.1-2.239.126-2.953.126-8.657 0-5.704-.026-6.418-.126-8.66-.105-2.234-.46-3.761-.977-5.095a10.305 10.305 0 0 0-2.422-3.72 10.266 10.266 0 0 0-3.72-2.422c-1.339-.52-2.867-.875-5.1-.977C27.413.026 26.7 0 20.995 0h.008H21zm-1.882 3.785h1.885c5.607 0 6.27.019 8.484.121 2.047.092 3.16.436 3.9.722.98.38 1.68.837 2.415 1.572.735.735 1.19 1.433 1.57 2.415.289.738.63 1.85.722 3.898.102 2.213.123 2.877.123 8.482 0 5.604-.02 6.27-.123 8.484-.092 2.047-.436 3.158-.722 3.898a6.483 6.483 0 0 1-1.572 2.412c-.735.735-1.433 1.19-2.415 1.57-.735.289-1.848.63-3.898.724-2.213.1-2.877.124-8.484.124s-6.274-.024-8.487-.123c-2.047-.095-3.158-.436-3.898-.725a6.504 6.504 0 0 1-2.415-1.57 6.51 6.51 0 0 1-1.575-2.415c-.286-.737-.63-1.85-.722-3.898-.1-2.213-.12-2.877-.12-8.486 0-5.607.02-6.269.12-8.482.094-2.047.436-3.16.724-3.9.381-.98.838-1.68 1.573-2.416.735-.735 1.433-1.189 2.415-1.57.74-.288 1.85-.63 3.898-.724 1.937-.09 2.688-.115 6.602-.118v.005zM32.21 7.271a2.52 2.52 0 1 0 0 5.04 2.52 2.52 0 0 0 0-5.04zm-11.208 2.946a10.786 10.786 0 1 0-.337 21.568 10.786 10.786 0 0 0 .337-21.569zm0 3.782a7 7 0 1 1 0 14.002 7 7 0 0 1 0-14.002z" fill="#fff"/></g><defs><clipPath id="a"><path fill="#fff" d="M0 0h42v42H0z"/></clipPath></defs></svg>
